Papirus/24x24/panel/insync-action.svg

<?xml version="1.0" encoding="UTF-8" standalone="no"?>
<svg id="svg2" xmlns:rdf="http://www.w3.org/1999/02/22-rdf-syntax-ns#" style="image-rendering:optimizeQuality;text-rendering:geometricPrecision;shape-rendering:geometricPrecision" xmlns="http://www.w3.org/2000/svg" fill-rule="evenodd" xml:space="preserve" viewBox="0 0 1771.6469 1771.6467" width="24" version="1.1" clip-rule="evenodd" xmlns:cc="http://creativecommons.org/ns#" height="24" xmlns:dc="http://purl.org/dc/elements/1.1/">
    <metadata id="metadata20">
        <rdf:RDF>
            <cc:Work rdf:about="">
                <dc:format>
                    image/svg+xml
                </dc:format>
                <dc:type rdf:resource="http://purl.org/dc/dcmitype/StillImage"/>
                <dc:title/>
            </cc:Work>
        </rdf:RDF>
    </metadata>
    <defs id="defs4">
        <style id="style6" type="text/css">
            <![CDATA[
    .fil2 {fill:#11A861}
    .fil0 {fill:#3777E3}
    .fil1 {fill:#FFCF63}
   ]]>
        </style>
    </defs>
    <g id="g4138" transform="translate(73.819 73.819)">
        <g id="g8" fill-rule="evenodd" transform="translate(-73.823 -73.786)" fill="#fff">
            <path id="path10" d="m9.5762 4 5.7168 10.064h5.443l-2.89-5.0718a3 3 0 0 1 -2.846 -2.9922 3 3 0 0 1 0.346 -1.3926l-0.346-0.6074h-5.4238z" transform="scale(73.819)"/>
            <path id="path12" d="m643.17 332.76-421.71 744.94 200.4 360.9 424.89-747.56-203.58-358.28z"/>
            <path id="path14" d="m692.48 1112-207.04 364.34h843.29l199.69-364.34h-835.94z"/>
        </g>
        <path id="path16" style="color:#000000" d="m1402.6 369.12a147.64 147.64 0 0 1 -295.27 0 147.64 147.64 0 1 1 295.27 0z" fill-rule="nonzero" fill="#5294e2"/>
    </g>
</svg>

<?xml version="1.0" encoding="UTF-8" standalone="no"?>
<svg xmlns:dc="http://purl.org/dc/elements/1.1/" xmlns:cc="http://creativecommons.org/ns#" xmlns:rdf="http://www.w3.org/1999/02/22-rdf-syntax-ns#" xmlns:svg="http://www.w3.org/2000/svg" xmlns="http://www.w3.org/2000/svg" id="svg2" viewBox="0 0 1771.6469 1771.6467" version="1.1" width="24" height="24" xml:space="preserve" style="clip-rule:evenodd;fill-rule:evenodd;image-rendering:optimizeQuality;shape-rendering:geometricPrecision;text-rendering:geometricPrecision">
    <metadata id="metadata20">
        <rdf:RDF>
            <cc:Work rdf:about="">
                <dc:format>
                    image/svg+xml
                </dc:format>
                <dc:type rdf:resource="http://purl.org/dc/dcmitype/StillImage"/>
                <dc:title/>
            </cc:Work>
        </rdf:RDF>
    </metadata>
    <defs id="defs4">
        <style id="style6" type="text/css">
            <![CDATA[
    .fil2 {fill:#11A861}
    .fil0 {fill:#3777E3}
    .fil1 {fill:#FFCF63}
   ]]>
        </style>
    </defs>
    <g transform="translate(73.818606,73.818621)" id="g4138">
        <g id="g8" style="opacity:1;fill:#ffffff;fill-opacity:1;fill-rule:evenodd" transform="translate(-73.822757,-73.786263)">
            <path d="m 9.5762,4 5.7168,10.064 5.443,0 -2.89,-5.0718 A 3,3 0 0 1 15,6 3,3 0 0 1 15.346,4.6074 L 15,4 9.5762,4 Z" transform="scale(73.819,73.819)" id="path10" style="fill:#ffffff;fill-opacity:1"/>
            <path d="M 643.17,332.76 221.46,1077.7 421.86,1438.6 846.75,691.04 643.17,332.76 Z" id="path12" style="fill:#ffffff;fill-opacity:1"/>
            <path d="m 692.48,1112 -207.04,364.34 843.29,0 199.69,-364.34 -835.94,0 z" id="path14" style="fill:#ffffff;fill-opacity:1"/>
        </g>
        <path style="color:#000000;fill:#5294e2;fill-opacity:1;fill-rule:nonzero" d="m 1402.5772,369.12374 a 147.64,147.64 0 0 1 -295.27,0 147.64,147.64 0 1 1 295.27,0 z" id="path16"/>
    </g>
</svg>
